X: 582
T: Peg Huglestones Hornpipe
M:4/4
L:1/8
S: 8: MCJLSH3 http://www.cpartington.plus.com/links/Walsh.abc
Z: Pete Stewart 2004
B: Walsh "Third Book of the most Celebrated jiggs, Lancashire hornpipes, ..."
K:C
GF | E2A4GA | c4dcBA | c2e2dcBA | d2B4GF | E2A4GA | c4cBcA | c2e2dcBA | G2E4 ||
gf | e2g2fedc | d2g2edcB | c2e2dcBA | d2B6 | e3f gefg | fefga4 | agfe dcBA | G2E4 ||

%%sep 1 1 500
%%sep 1 1 500
